!!!!SEGMENT: pl-kk--kk-i-7--099_gorczycki-grzegorz-gerwazy--salve-mundi-domina.krn
!!!cenid: 16xx:938
!!!COM: Gorczycki, Grzegorz Gerwazy
!!!COM-rismID: pe30009207
!!!CDT: ~1666-1734/04/30
!!!CNT: Polish
!!!OTL: Salve mundi Domina
!!!PDT:
!!!AGN: Sacred
!!!SMS-siglum: PL-Kk
!!!SMS-shelfmark: Kk.I.7
!!!SMS-shelfwork: 099 W
!!!SMS-variant:
!!!SMS-altvar:
!!!NIFC-rismSourceID: 300258176
!!!NIFC-islandoraID: pl-kk:1956
!!!URL-pdf-islandora: https://repozytorium.nifc.pl/islandora/object/pl-kk%3A1956/datastream/PDF/view
!!!URL-scan: https://polish.musicsources.pl/pl/lokalizacje/galeria/rekopisy/6140 @EN{Scan on Polish Music Sources Website} @PL{Skany w portalu Dziedzictwo Muzyki Polskiej w otwartym dostępie}
!!!ONB-nifc: UWAGA: C (skan 0077, s.146-147), A (0155, s.130-131), T (0242, s.146-147), B (0329, s.142-143). Następny utwór: Salve virgo puerpera
!!!AIN: 1 alto 1 bass 1 soprn 1 tenor
!!!key:
**kern	**text	**text	**text	**text	**kern	**text	**text	**text	**text	**kern	**text	**text	**text	**text	**kern	**text	**text	**text	**text
*part4	*part4	*part4	*part4	*part4	*part3	*part3	*part3	*part3	*part3	*part2	*part2	*part2	*part2	*part2	*part1	*part1	*part1	*part1	*part1
*staff4	*staff4	*staff4	*staff4	*staff4	*staff3	*staff3	*staff3	*staff3	*staff3	*staff2	*staff2	*staff2	*staff2	*staff2	*staff1	*staff1	*staff1	*staff1	*staff1
*	*verse1	*verse2	*verse3	*verse4	*	*verse1	*verse2	*verse3	*verse4	*	*verse1	*verse2	*verse3	*verse4	*	*verse1	*verse2	*verse3	*verse4
*Ibass	*	*	*	*	*Itenor	*	*	*	*	*Ialto	*	*	*	*	*Isoprn	*	*	*	*
*I"BASSVS.	*	*	*	*	*I"TENOR.	*	*	*	*	*I"ALTVS.	*	*	*	*	*I"CANTVS.	*	*	*	*
*I'B	*	*	*	*	*I'T	*	*	*	*	*I'A	*	*	*	*	*I'C	*	*	*	*
*clefF4	*	*	*	*	*clefC4	*	*	*	*	*clefC3	*	*	*	*	*clefC4	*	*	*	*
*k[]	*	*	*	*	*k[]	*	*	*	*	*k[]	*	*	*	*	*k[]	*	*	*	*
*d:	*	*	*	*	*d:	*	*	*	*	*d:	*	*	*	*	*d:	*	*	*	*
*M2/1	*	*	*	*	*M2/1	*	*	*	*	*M2/1	*	*	*	*	*M2/1	*	*	*	*
*met(C|)	*	*	*	*	*met(C|)	*	*	*	*	*met(C|)	*	*	*	*	*met(C|)	*	*	*	*
=1-	=1-	=1-	=1-	=1-	=1-	=1-	=1-	=1-	=1-	=1-	=1-	=1-	=1-	=1-	=1-	=1-	=1-	=1-	=1-
*2\right	*	*	*	*	*2\right	*	*	*	*	*2\right	*	*	*	*	*2\right	*	*	*	*
!LO:TX:t=P:problem= Inicjał "S" na pięciolinii przed kluczem	!	!	!	!	!LO:TX:t=P:problem= Inicjał "S" na pięciolinii przed kluczem	!	!	!	!	!LO:TX:t=P:problem= Inicjał "S" na pięciolinii przed kluczem	!	!	!	!	!LO:TX:t=P:problem= Inicjał "S" na pięciolinii przed kluczem	!	!	!	!
!	!	!	!	!	!	!	!	!	!	!	!	!	!	!	!LO:TX:t=P:problem=kreska pseudotaktowa	!	!	!	!
2r	.	.	.	.	1D	Sal-	Sal-	Ab	Ter-	2r	.	.	.	.	1A	Sal-	Sal-	Ab	Ter-
1D	Sal-	Sal-	Ab	Ter-	.	.	.	.	.	1f	Sal-	Sal-	Ab	Ter-	.	.	.	.	.
!	!	!	!	!	!LO:TX:t=P:problem=kreska pseudotaktowa	!	!	!	!	!	!	!	!	!	!	!	!	!	!
.	.	.	.	.	1F	-ve	-ve	ae-	-ram	.	.	.	.	.	1A	-ve	-ve	ae-	-ram
!LO:TX:t=P:problem=kreska pseudotaktowa	!	!	!	!	!	!	!	!	!	!LO:TX:t=P:problem=kreska pseudotaktowa	!	!	!	!	!	!	!	!	!
2D/	-ve	-ve	ae-	-ram	.	.	.	.	.	2d\	-ve	-ve	ae-	-ram	.	.	.	.	.
=2-	=2-	=2-	=2-	=2-	=2-	=2-	=2-	=2-	=2-	=2-	=2-	=2-	=2-	=2-	=2-	=2-	=2-	=2-	=2-
2C/	mun-	ple-	-ter-	pon-	1G	Mun-	ple-	-ter-	pon-	2g\	mun-	ple-	-ter-	pon-	2c\	Mun-	ple-	-ter-	pon-
!LO:TX:t=P:problem=kreska pseudotaktowa	!	!	!	!	!	!	!	!	!	!	!	!	!	!	!LO:TX:t=P:problem=kreska pseudotaktowa	!	!	!	!
2BB-X/	-di	-na	-no	-tum	.	.	.	.	.	2g\	-di	-na	-no	-tum	2d\	-di	-na	-no	-tum
!	!	!	!	!	!LO:TX:t=P:problem=kreska pseudotaktowa	!	!	!	!	!	!	!	!	!	!	!	!	!	!
2AA/	Do-	Gra-	Do-	.	1A	-di	-na	-no	-tum	2e\	Do-	gra-	Do-	ae-	4c\	Do-	gra-	Do-	ae-
.	.	.	.	.	.	.	.	.	.	.	.	.	.	.	4B-X\	.	.	.	.
!	!	!	!	!	!	!	!	!	!	!LO:TX:t=P::problem=kreska pseudotaktowa&colon;między nutą a kropką	!	!	!	!	!	!	!	!	!
2.D/	.	.	.	ae-	.	.	.	.	.	(<2.f\	.	.	.	.	1A\	.	.	.	.
=3-	=3-	=3-	=3-	=3-	=3-	=3-	=3-	=3-	=3-	=3-	=3-	=3-	=3-	=3-	=3-	=3-	=3-	=3-	=3-
.	.	.	.	.	1F	Do-	Gra-	Do-	ae-	.	.	.	.	.	.	.	.	.	.
4C/	.	.	.	.	.	.	.	.	.	4e\)	.	.	.	.	.	.	.	.	.
4BB-y/	.	.	.	.	.	.	.	.	.	2d\	.	.	.	.	1d	.	.	.	.
!LO:TX:t=P:problem=kreska pseudotaktowa	!	!	!	!	!	!	!	!	!	!	!	!	!	!	!	!	!	!	!
4AA/	.	.	.	.	.	.	.	.	.	.	.	.	.	.	.	.	.	.	.
2GG/	.	.	.	.	2.E/	.	.	.	.	4g\	.	.	.	.	.	.	.	.	.
.	.	.	.	.	.	.	.	.	.	(>4f\	.	.	.	.	.	.	.	.	.
!LO:TX:t=P:problem=kreska pseudotaktowa	!	!	!	!	!	!	!	!	!	!	!	!	!	!	!LO:TX:t=P:problem=kreska pseudotaktowa	!	!	!	!
2AA/	-mi-	-ti-	-mi-	-the-	.	.	.	.	.	4e\)	.	.	.	.	2c#X\	-mi-	-ti-	-mi-	-(t)he-
!	!	!	!	!	!	!	!	!	!	!LO:TX:t=P:problem=kreska pseudotaktowa	!	!	!	!	!	!	!	!	!
.	.	.	.	.	4E/	-mi-	-ti-	-mi-	-the-	4e\|	-mi-	-ti-	-mi-	-the-	.	.	.	.	.
=4-	=4-	=4-	=4-	=4-	=4-	=4-	=4-	=4-	=4-	=4-	=4-	=4-	=4-	=4-	=4-	=4-	=4-	=4-	=4-
!LO:TX:t=P:problem=kreska pseudotaktowa	!	!	!	!	!LO:TX:t=P:problem=kreska pseudotaktowa	!	!	!	!	!	!	!	!	!	!	!	!	!	!
1D	-na	-a	-nus	-ra,	1D	-na	-a	-nus	-ra	2f,\	-na	-a	-n(us)	-ra	2d,\	-na	-a	-nus	-ra
!	!	!	!	!	!	!	!	!	!	!LO:TX:t=P:problem=kreska pseudotaktowa	!	!	!	!	!	!	!	!	!
.	.	.	.	.	.	.	.	.	.	2f\	Cae-	Cla-	Te	Te	1A	Cae-	Cla-	Te	Te
4AA/	Cae-	Cla-	Te	Te	1c	Cae-	Cla-	Te	Te	2e\	-lo-	-ra	prae-	pul-	.	.	.	.	.
(<4BB-y/	.	.	prae-	.	.	.	.	.	.	.	.	.	.	.	.	.	.	.	.
!	!	!	!	!	!	!	!	!	!	!	!	!	!	!	!LO:TX:t=P:problem=kreska pseudotaktowa	!	!	!	!
4C/	.	.	.	.	.	.	.	.	.	1e\	-rum	.	-or-	-chram	2A/	-lo-	-ra	prae-	pul-
!LO:TX:t=P:problem=kreska pseudotaktowa	!	!	!	!	!	!	!	!	!	!	!	!	!	!	!	!	!	!	!
4D/)	.	.	.	.	.	.	.	.	.	.	.	.	.	.	.	.	.	.	.
=5-	=5-	=5-	=5-	=5-	=5-	=5-	=5-	=5-	=5-	=5-	=5-	=5-	=5-	=5-	=5-	=5-	=5-	=5-	=5-
2E\	-lo-	.	-or-	pul-	1Bn	-lo-	-ra	prae-	pul-	.	.	.	.	.	2A/	-rum	lux	-or-	-chram
!LO:TX:t=P:problem=kreska pseudotaktowa	!	!	!	!	!	!	!	!	!	!LO:TX:t=P:problem=kreska pseudotaktowa	!	!	!	!	!LO:TX:t=P:problem=kreska pseudotaktowa	!	!	!	!
2E\	-rum	-ra	-di-	-chram	.	.	.	.	.	2e\	.	lux	-di-	or-	2G#X/	Re-	di-	-di-	or-
(>4D\	Re-	lux	-na-	.	1d	-rum	lux	-or-	-chram	1f	Re-	di-	-na-	-na-	4A/	-gi-	-vi-	-na-	-na-
4E\	.	.	.	.	.	.	.	.	.	.	.	.	.	.	4G#/	.	.	.	.
4F\)	.	.	.	.	.	.	.	.	.	.	.	.	.	.	4A/	.	.	.	.
!LO:TX:t=P:problem=kreska pseudotaktowa	!	!	!	!	!	!	!	!	!	!	!	!	!	!	!LO:TX:t=P:problem=kreska pseudotaktowa	!	!	!	!
4G\	.	di-	.	or-	.	.	.	.	.	.	.	.	.	.	4B-y/	.	.	.	.
=6-	=6-	=6-	=6-	=6-	=6-	=6-	=6-	=6-	=6-	=6-	=6-	=6-	=6-	=6-	=6-	=6-	=6-	=6-	=6-
!	!	!	!	!	!LO:TX:t=P:problem=kreska pseudotaktowa	!	!	!	!	!	!	!	!	!	!	!	!	!	!
4A\	.	-vi-	.	-na-	1c	Re-	di-	-di-	or-	2e\	-gi-	-vi-	.	.	2cny\	.	.	.	.
4AA/	.	.	.	.	.	.	.	.	.	.	.	.	.	.	.	.	.	.	.
!	!	!	!	!	!	!	!	!	!	!	!	!	!	!	!LO:TX:t=P:problem=kreska pseudotaktowa	!	!	!	!
4C/	.	.	.	.	.	.	.	.	.	1a	.	.	.	.	2A/	-na	-na	-vit,	-vit
!LO:TX:t=P:problem=kreska pseudotaktowa	!	!	!	!	!	!	!	!	!	!	!	!	!	!	!	!	!	!	!
4D/	.	.	.	.	.	.	.	.	.	.	.	.	.	.	.	.	.	.	.
!LO:TX:t=P:problem=kreska pseudotaktowa	!	!	!	!	!	!	!	!	!	!	!	!	!	!	!LO:TX:t=P:problem=kreska pseudotaktowa	!	!	!	!
1E	-gi-	.	.	.	1B	-gi-	-vi-	-na-	-na-	.	.	.	.	.	1r	.	.	.	.
!	!	!	!	!	!	!	!	!	!	!LO:TX:t=P:problem=kreska pseudotaktowa	!	!	!	!	!	!	!	!	!
.	.	.	.	.	.	.	.	.	.	2g#X\	.	.	.	.	.	.	.	.	.
=7-	=7-	=7-	=7-	=7-	=7-	=7-	=7-	=7-	=7-	=7-	=7-	=7-	=7-	=7-	=7-	=7-	=7-	=7-	=7-
!	!	!	!	!	!LO:TX:t=P:problem=kreska pseudotaktowa	!	!	!	!	!LO:TX:t=P:problem=kreska pseudotaktowa	!	!	!	!	!	!	!	!	!
2AA,/	-na	-na	-vit	-vit	1A	-na	-na	-vit,	-vit	0a	-na,	-na:	-vit,	-vit,	2c\	Sal-	Mun-	Ma-	Si-
!	!	!	!	!	!	!	!	!	!	!	!	!	!	!	!LO:TX:t=P:problem=kreska pseudotaktowa	!	!	!	!
1F	sal-	mun-	Ma-	Si-	.	.	.	.	.	.	.	.	.	.	2c\	-ve	-di	-trem	-bi
.	.	.	.	.	1c	sal-	Mun-	Ma-	Si-	.	.	.	.	.	2A/	Vir-	in	U-	Spon-
*custos:E	*	*	*	*	*	*	*	*	*	*	*	*	*	*	*custos:c	*	*	*	*
!LO:TX:t=P:problem=kreska pseudotaktowa	!	!	!	!	!	!	!	!	!	!	!	!	!	!	!LO:TX:t=P:problem=kreska pseudotaktowa	!	!	!	!
2F\	-ve	-di	-trem	-bi	.	.	.	.	.	.	.	.	.	.	2F/	-go	au-	-ni	-sam
!LO:PB:g=original	!	!	!	!	!	!	!	!	!	!	!	!	!	!	!LO:PB:g=original	!	!	!	!
=8-	=8-	=8-	=8-	=8-	=8-	=8-	=8-	=8-	=8-	=8-	=8-	=8-	=8-	=8-	=8-	=8-	=8-	=8-	=8-
*	*	*	*	*	*	*	*	*	*	*custos:f	*	*	*	*	*	*	*	*	*
!	!	!	!	!	!	!	!	!	!	!LO:TX:t=P:problem=kreska pseudotaktowa	!	!	!	!	!	!	!	!	!
!	!	!	!	!	!LO:TX:t=P:problem=kreska pseudotaktowa	!	!	!	!	!	!	!	!	!	!	!	!	!	!
2E\	Vir-	in	Uni-	Spon-	1c	-ve	-di	-trem	-bi	0r	.	.	.	.	2.c\	Vir-	-xi-	ge-	in
!LO:TX:t=P:problem=kreska pseudotaktowa	!	!	!	!	!	!	!	!	!	!	!	!	!	!	!	!	!	!	!
2C/	-go	au-	ge-	-sam	.	.	.	.	.	.	.	.	.	.	.	.	.	.	.
!	!	!	!	!	!	!	!	!	!	!	!	!	!	!	!LO:TX:t=P:problem=kreska pseudotaktowa	!	!	!	!
.	.	.	.	.	.	.	.	.	.	.	.	.	.	.	4c\	-gi-	-lium	-ni-	a-
(>2D\	vir-	-xi[[li]]-	.	.	1B-X	Vir-	in	uni-	Spon-	.	.	.	.	.	2F,/	-num	.	-ti	-dam
!LO:TX:t=P:problem=kreska pseudotaktowa	!	!	!	!	!	!	!	!	!	!	!	!	!	!	!	!	!	!	!
2E\)	.	.	.	in	.	.	.	.	.	.	.	.	.	.	4Gny/	Vir-	mun-	Uni-	in
!	!	!	!	!	!	!	!	!	!	!	!	!	!	!	!LO:TX:t=P:problem=kreska pseudotaktowa	!	!	!	!
.	.	.	.	.	.	.	.	.	.	.	.	.	.	.	4G/	-go	-di	-ge-	a-
!	!	!	!	!	!	!	!	!	!	!LO:PB:g=original	!	!	!	!	!	!	!	!	!
=9-	=9-	=9-	=9-	=9-	=9-	=9-	=9-	=9-	=9-	=9-	=9-	=9-	=9-	=9-	=9-	=9-	=9-	=9-	=9-
*	*	*	*	*	*custos:G	*	*	*	*	*	*	*	*	*	*	*	*	*	*
!	!	!	!	!	!LO:TX:t=P:problem=kreska pseudotaktowa	!	!	!	!	!	!	!	!	!	!	!	!	!	!
4F\	.	.	.	a-	1A	-go,	au-	.	-sam	2f\	Sal-	mun-	Ma-	Si-	4A\	Vir-	in	.	.
4FF/	.	.	.	.	.	.	.	.	.	.	.	.	.	.	4B-X\	.	.	.	.
!	!	!	!	!	!	!	!	!	!	!LO:TX:t=P:problem=kreska pseudotaktowa	!	!	!	!	!	!	!	!	!
4AA/	.	.	.	.	.	.	.	.	.	2f\	-ve	-di	-trem	-bi	1c	.	au-	.	.
!LO:TX:t=P:problem=kreska pseudotaktowa	!	!	!	!	!	!	!	!	!	!	!	!	!	!	!	!	!	!	!
4BB-X/	.	.	.	.	.	.	.	.	.	.	.	.	.	.	.	.	.	.	.
!	!	!	!	!	!LO:PB:g=original	!	!	!	!	!	!	!	!	!	!	!	!	!	!
2C/	.	.	.	.	1.G	Vir-	-xi-	ge-	in	4e\	Vir-	in	uni-	Spon-	.	.	.	.	.
.	.	.	.	.	.	.	.	.	.	4c\	-go	au-	.	-sam	.	.	.	.	.
!LO:TX:t=P:problem=kreska pseudotaktowa	!	!	!	!	!	!	!	!	!	!	!	!	!	!	!LO:TX:t=P:problem=kreska pseudotaktowa	!	!	!	!
2BB-X/	.	.	.	.	.	.	.	.	.	1f\	Vir-	-xi-	ge-	in	2G/	.	.	.	.
=10-	=10-	=10-	=10-	=10-	=10-	=10-	=10-	=10-	=10-	=10-	=10-	=10-	=10-	=10-	=10-	=10-	=10-	=10-	=10-
2.C/	-gi-	.	.	.	.	.	.	.	.	.	.	.	.	.	2.c\	.	-xi-	.	.
!	!	!	!	!	!	!	!	!	!	!LO:TX:t=P:problem=kreska pseudotaktowa	!	!	!	!	!	!	!	!	!
.	.	.	.	.	2G/	-gi-	-lium	-ni-	a-	2e\	-gi-	-lium	-ni-	a-	.	.	.	.	.
4C/	-num	-lium	-ni-	.	.	.	.	.	.	.	.	.	.	.	4B-X\	-gi-	-lium	-ni-	-dam
!	!	!	!	!	!LO:TX:t=P:problem=kreska pseudotaktowa	!	!	!	!	!LO:TX:t=P:problem=kreska pseudotaktowa	!	!	!	!	!LO:TX:t=P:problem=kreska pseudotaktowa	!	!	!	!
1FF,	.	.	-ti	-dam	1A	-num	.	-ti	-dam	1f	-num	.	-ti	-dam	1A	-num	.	-ti	.
=11-	=11-	=11-	=11-	=11-	=11-	=11-	=11-	=11-	=11-	=11-	=11-	=11-	=11-	=11-	=11-	=11-	=11-	=11-	=11-
!LO:TX:t=P:problem=kreska pseudotaktowa	!	!	!	!	!	!	!	!	!	!	!	!	!	!	!	!	!	!	!
[<1C	Stel-	Do-	Ver-	quae	1G	stel-	Do-	Ver-	quae	2r	.	.	.	.	2r	.	.	.	.
.	.	.	.	.	.	.	.	.	.	1e	stel-	Do-	Ver-	quae	1c	Stel-	Do-	Ver-	quae
!LO:N:xstem:cue:vis=4	!	!	!	!	!LO:TX:t=P:problem=kreska pseudotaktowa	!	!	!	!	!	!	!	!	!	!	!	!	!	!
2C]	.	.	.	.	1A	-la	-mi-	-bi	nun-	.	.	.	.	.	.	.	.	.	.
!	!	!	!	!	!	!	!	!	!	!LO:TX:t=P:problem=kreska pseudotaktowa	!	!	!	!	!LO:TX:t=P:problem=kreska pseudotaktowa	!	!	!	!
2D/	-la	-mi-	-bi	nun-	.	.	.	.	.	2f\	-la	-mi-	-bi	nun-	2A\	-la	-mi-	-bi	nun-
=12-	=12-	=12-	=12-	=12-	=12-	=12-	=12-	=12-	=12-	=12-	=12-	=12-	=12-	=12-	=12-	=12-	=12-	=12-	=12-
2BB-X/	ma-	-na	quo	-quam	1G	ma-	-na	quo	-quam	2d\	ma-	-na	quo	-quam	2B-y\	ma-	-na	quo	-quam
!LO:TX:t=P:problem=kreska pseudotaktowa	!	!	!	!	!	!	!	!	!	!LO:TX:t=P:problem=kreska pseudotaktowa	!	!	!	!	!LO:TX:t=P:problem=kreska pseudotaktowa	!	!	!	!
2C/	-tu-	fe-	crea-	.	.	.	.	.	.	2e\	-tu-	fe-	crea-	.	2G/	-tu-	fe-	crea-	.
2AA/	-ti-	-sti-	.	pec-	1F	-tu-	fe-	crea-	pec-	2c#X\	-ti-	-sti-	.	pec-	2A\	-ti-	-sti-	.	pec-
2BB-X/	.	.	.	.	.	.	.	.	.	1d\	.	.	.	-ca-	2F/	.	.	.	-ca-
=13-	=13-	=13-	=13-	=13-	=13-	=13-	=13-	=13-	=13-	=13-	=13-	=13-	=13-	=13-	=13-	=13-	=13-	=13-	=13-
(<2GG/	.	.	.	-ca-	1E	-ti-	-sti-	.	-ca-	.	.	.	.	.	2B-X\	.	.	.	.
!LO:TX:t=P:problem=kreska pseudotaktowa	!	!	!	!	!	!	!	!	!	!LO:TX:t=P:problem=kreska pseudotaktowa	!	!	!	!	!LO:TX:t=P:problem=kreska pseudotaktowa	!	!	!	!
2AA/)	.	.	.	.	.	.	.	.	.	2c#X\	.	.	.	.	2A\	.	.	.	.
0D;>	-na	-na	-vit	-vit.	0D;>	-na.	-na	-vit	-vit.	0d;>	-na.	-na.	-vit.	-vit.	0A;>	-na	-na	-vit.	-vit.
==	==	==	==	==	==	==	==	==	==	==	==	==	==	==	==	==	==	==	==
*-	*-	*-	*-	*-	*-	*-	*-	*-	*-	*-	*-	*-	*-	*-	*-	*-	*-	*-	*-
!!!system-decoration: s1,s2,s3,s4
!!!RDF**kern: > = above
!!!RDF**kern: < = below
!!!RDF**kern: | = vertical stroke
!!!EED: Mateusz Mrugas
!!!EEV: 2021-03-20
!!!ENC: Andrzej Gręziak
!!!END: 2021-03-10
